X:1010
T:G\aangl\aat fr\aan Enviken
C:anon.
O:Sweden
A:Enviken
R:G\aangl\aat (gaanglaat)
Z:After Vilhelm Hedlund, transcribed by Frank Nordberg - http://www.musicaviva.com
F:http://abc.musicaviva.com/tunes/sweden/gaanglaat-enviken.abc
V:1 Program 1 110 %Fiddle
m: Tn = (3n/o/n/
M:C|
L:1/8
Q:1/4=152
K:Dm
d2AFD2FA|d2(3ded_d2A2|f2fe (^cd)ef|d2AFD3 z|
d2AFD2FA|d2(3ded_d2A2|a3f (eg)fe|d2d2d3 z:|
|:a2(3abag2e2|f2(3fgfe2^c2|d3e (fe)df|e2 {f}e^c A3 z|
a2(3abag2e2|f2(3fgfe2^c2|d2 dA F2 FD|[1E2 ({F}TE)^C D3 z:|[2E2 ({F}TE)^C D4|]
W:
W:
W:  From Musica Viva - http://www.musicaviva.com
W:  the Internet center for free sheet music downloads.


